X: 119
T: Tommy Peoples'
T:Milkmaid
M: 4/4
L: 1/8
R: reel
K:Gmaj
"G"G2BG cGBG|"D"ADDE FGAF|"G"G2BG cGBG|1"D" Addc AGGF:|2"D" Addc AGGf||
|: "G"g2dg egde|g2bg "C(Am)"agef|"G"g2dg egdB|1 "C(Am)"cAdc "G"BGGf:|2"C(Am)" cAdc "G"BGGF||


